Simply-Red-Circles/scalable/mimes/application-x-cpio.svg

<?xml version="1.0" encoding="UTF-8" standalone="no"?><svg xmlns:dc="http://purl.org/dc/elements/1.1/" xmlns:cc="http://creativecommons.org/ns#" xmlns:rdf="http://www.w3.org/1999/02/22-rdf-syntax-ns#" xmlns="http://www.w3.org/2000/svg" width="48" height="48" viewBox="0 0 12.7 12.7"><metadata><rdf:RDF><cc:Work><dc:format>image/svg+xml</dc:format><dc:type rdf:resource="http://purl.org/dc/dcmitype/StillImage"/><dc:title/></cc:Work></rdf:RDF></metadata><path d="M1.21.86L.14 3.66h6.04V.86H1.21zm5.18 0v2.8h6.11L11.4.86H6.4zM.19 3.89v6.31c0 .64.25 1.18.74 1.64.5.45 1.08.67 1.78.67h7.25c.7 0 1.28-.22 1.78-.67.49-.46.73-1 .73-1.64V3.9h-1.12v6.3c0 .36-.13.66-.4.91a1.4 1.4 0 0 1-.99.38H2.71a1.4 1.4 0 0 1-.99-.38 1.19 1.19 0 0 1-.41-.9V3.88H.19zm1.53 1.4v1.06H2v1.06h.53V6.35h.26V5.29H1.72zm1.32.05v.53h.53v-.53h-.53zm.53.53v.53h.53v-.53h-.53zm.53 0h.53v-.53H4.1v.53zm.53 0v.53h.53v-.53h-.53zm.53 0h.52v-.53h-.52v.53zm.52 0v.53h.53v-.53h-.53zm.53 0h.53v-.53h-.53v.53zm.53 0v.53h.53v-.53h-.53zm.53 0h.53v-.53h-.53v.53zm.53 0v.53h.53v-.53H7.8zm.53 0h.53v-.53h-.53v.53zm.53 0v.53h.53v-.53h-.53zm.53 0h.53v-.53h-.53v.53zm.53 0v.53h.53v-.53h-.53zm.53 0h.53v-.53h-.53v.53zm-8.46-.31h.53v.53h-.53v-.53zm5.18 2.32v.4h.43v-.4h-.43zm-3.28.55a.91.91 0 0 0-.92.92c0 .51.42.92.94.92a.9.9 0 0 0 .87-.62h-.47c-.11.16-.23.23-.4.23-.3 0-.52-.23-.52-.53 0-.31.21-.53.5-.53.2 0 .33.08.42.24h.47a.8.8 0 0 0-.24-.38.95.95 0 0 0-.65-.25zm2.15 0a.74.74 0 0 0-.58.25v-.2h-.38v2.34h.42v-.75a.75.75 0 0 0 .54.2c.5 0 .88-.4.88-.93s-.37-.91-.87-.91zm2.75 0a.93.93 0 0 0-.93.92c0 .5.42.92.93.92s.94-.41.94-.9a.92.92 0 0 0-.94-.94zm-1.62.04v1.76h.43V8.47h-.43zM6 8.82c.29 0 .5.23.5.53 0 .3-.21.53-.5.53a.51.51 0 0 1-.51-.53c0-.3.22-.53.51-.53zm2.8 0c.29 0 .51.24.51.53a.52.52 0 0 1-.5.53c-.29 0-.51-.23-.51-.54 0-.29.23-.52.5-.52z" fill="#a02c2c"/></svg>

<?xml version="1.0" encoding="UTF-8" standalone="no"?>
<svg
   xmlns:dc="http://purl.org/dc/elements/1.1/"
   xmlns:cc="http://creativecommons.org/ns#"
   xmlns:rdf="http://www.w3.org/1999/02/22-rdf-syntax-ns#"
   xmlns:svg="http://www.w3.org/2000/svg"
   xmlns="http://www.w3.org/2000/svg"
   xmlns:sodipodi="http://sodipodi.sourceforge.net/DTD/sodipodi-0.dtd"
   xmlns:inkscape="http://www.inkscape.org/namespaces/inkscape"
   width="48"
   height="48"
   viewBox="0 0 12.7 12.7"
   version="1.1"
   id="svg6"
   sodipodi:docname="application-x-cpio.svg"
   inkscape:version="0.92.4 (5da689c313, 2019-01-14)">
  <defs
     id="defs10" />
  <sodipodi:namedview
     pagecolor="#ffffff"
     bordercolor="#666666"
     borderopacity="1"
     objecttolerance="10"
     gridtolerance="10"
     guidetolerance="10"
     inkscape:pageopacity="0"
     inkscape:pageshadow="2"
     inkscape:window-width="1087"
     inkscape:window-height="480"
     id="namedview8"
     showgrid="false"
     inkscape:zoom="4.9166667"
     inkscape:cx="2.1355932"
     inkscape:cy="24"
     inkscape:window-x="0"
     inkscape:window-y="25"
     inkscape:window-maximized="0"
     inkscape:current-layer="svg6" />
  <metadata
     id="metadata2">
    <rdf:RDF>
      <cc:Work>
        <dc:format>image/svg+xml</dc:format>
        <dc:type
           rdf:resource="http://purl.org/dc/dcmitype/StillImage" />
        <dc:title></dc:title>
      </cc:Work>
    </rdf:RDF>
  </metadata>
  <path
     d="m 1.21,0.86 -1.07,2.8 h 6.04 v -2.8 z m 5.18,0 v 2.8 h 6.11 l -1.1,-2.8 h -5 z m -6.2,3.03 v 6.31 c 0,0.64 0.25,1.18 0.74,1.64 0.5,0.45 1.08,0.67 1.78,0.67 h 7.25 c 0.7,0 1.28,-0.22 1.78,-0.67 0.49,-0.46 0.73,-1 0.73,-1.64 V 3.9 h -1.12 v 6.3 c 0,0.36 -0.13,0.66 -0.4,0.91 A 1.4,1.4 0 0 1 9.96,11.49 H 2.71 A 1.4,1.4 0 0 1 1.72,11.11 1.19,1.19 0 0 1 1.31,10.21 V 3.88 H 0.19 Z m 1.53,1.4 V 6.35 H 2 V 7.41 H 2.53 V 6.35 H 2.79 V 5.29 Z M 3.04,5.34 V 5.87 H 3.57 V 5.34 Z M 3.57,5.87 V 6.4 H 4.1 V 5.87 Z m 0.53,0 H 4.63 V 5.34 H 4.1 Z m 0.53,0 V 6.4 H 5.16 V 5.87 Z m 0.53,0 H 5.68 V 5.34 H 5.16 Z m 0.52,0 V 6.4 H 6.21 V 5.87 Z m 0.53,0 H 6.74 V 5.34 H 6.21 Z m 0.53,0 V 6.4 H 7.27 V 5.87 Z m 0.53,0 H 7.8 V 5.34 H 7.27 Z m 0.53,0 V 6.4 H 8.33 V 5.87 Z m 0.53,0 H 8.86 V 5.34 H 8.33 Z m 0.53,0 V 6.4 H 9.39 V 5.87 Z m 0.53,0 H 9.92 V 5.34 H 9.39 Z m 0.53,0 V 6.4 h 0.53 V 5.87 Z m 0.53,0 h 0.53 V 5.34 H 10.45 Z M 1.99,5.56 H 2.52 V 6.09 H 1.99 Z m 5.18,2.32 v 0.4 H 7.6 V 7.88 Z M 3.89,8.43 A 0.91,0.91 0 0 0 2.97,9.35 c 0,0.51 0.42,0.92 0.94,0.92 A 0.9,0.9 0 0 0 4.78,9.65 H 4.31 C 4.2,9.81 4.08,9.88 3.91,9.88 3.61,9.88 3.39,9.65 3.39,9.35 c 0,-0.31 0.21,-0.53 0.5,-0.53 0.2,0 0.33,0.08 0.42,0.24 H 4.78 A 0.8,0.8 0 0 0 4.54,8.68 0.95,0.95 0 0 0 3.89,8.43 Z m 2.15,0 A 0.74,0.74 0 0 0 5.46,8.68 V 8.48 H 5.08 v 2.34 H 5.5 v -0.75 a 0.75,0.75 0 0 0 0.54,0.2 c 0.5,0 0.88,-0.4 0.88,-0.93 0,-0.53 -0.37,-0.91 -0.87,-0.91 z m 2.75,0 A 0.93,0.93 0 0 0 7.86,9.35 c 0,0.5 0.42,0.92 0.93,0.92 0.51,0 0.94,-0.41 0.94,-0.9 A 0.92,0.92 0 0 0 8.79,8.43 Z M 7.17,8.47 v 1.76 H 7.6 V 8.47 Z M 6,8.82 c 0.29,0 0.5,0.23 0.5,0.53 0,0.3 -0.21,0.53 -0.5,0.53 A 0.51,0.51 0 0 1 5.49,9.35 C 5.49,9.05 5.71,8.82 6,8.82 Z m 2.8,0 c 0.29,0 0.51,0.24 0.51,0.53 A 0.52,0.52 0 0 1 8.81,9.88 C 8.52,9.88 8.3,9.65 8.3,9.34 8.3,9.05 8.53,8.82 8.8,8.82 Z"
     id="path4"
     inkscape:connector-curvature="0"
     style="fill:#a02c2c" />
</svg>
